Numix-Light/16/status/indicator-keyboard-Mt-1.svg

<?xml version="1.0" encoding="UTF-8" standalone="no"?>
<svg
   xmlns:dc="http://purl.org/dc/elements/1.1/"
   xmlns:cc="http://creativecommons.org/ns#"
   xmlns:rdf="http://www.w3.org/1999/02/22-rdf-syntax-ns#"
   xmlns:svg="http://www.w3.org/2000/svg"
   xmlns="http://www.w3.org/2000/svg"
   xmlns:sodipodi="http://sodipodi.sourceforge.net/DTD/sodipodi-0.dtd"
   xmlns:inkscape="http://www.inkscape.org/namespaces/inkscape"
   viewBox="0 0 16 16"
   id="svg2"
   version="1.1"
   inkscape:version="0.91 r13725"
   sodipodi:docname="indicator-keyboard-Mt-1.svg">
  <metadata
     id="metadata14">
    <rdf:RDF>
      <cc:Work
         rdf:about="">
        <dc:format>image/svg+xml</dc:format>
        <dc:type
           rdf:resource="http://purl.org/dc/dcmitype/StillImage" />
      </cc:Work>
    </rdf:RDF>
  </metadata>
  <defs
     id="defs12" />
  <sodipodi:namedview
     pagecolor="#ffffff"
     bordercolor="#666666"
     borderopacity="1"
     objecttolerance="10"
     gridtolerance="10"
     guidetolerance="10"
     inkscape:pageopacity="0"
     inkscape:pageshadow="2"
     inkscape:window-width="640"
     inkscape:window-height="480"
     id="namedview10"
     showgrid="false"
     inkscape:zoom="14.75"
     inkscape:cx="8"
     inkscape:cy="8"
     inkscape:window-x="65"
     inkscape:window-y="24"
     inkscape:window-maximized="0"
     inkscape:current-layer="svg2" />
  <path
     style="fill:#353535;fill-opacity:1"
     d="M 1.5996094 0 C 0.71320937 2.9605947e-16 0 0.71320937 0 1.5996094 L 0 14.400391 C 2.9605947e-16 15.286791 0.71320937 16 1.5996094 16 L 14.400391 16 C 15.286791 16 16 15.286791 16 14.400391 L 16 1.5996094 C 16 0.71320937 15.286791 0 14.400391 0 L 1.5996094 0 z M 2.1035156 4.859375 L 2.6425781 4.859375 C 2.8225781 5.159375 3.01475 5.5063438 3.21875 5.9023438 C 3.42275 6.2923438 3.6242656 6.7009531 3.8222656 7.1269531 C 4.0262656 7.5469531 4.22025 7.9649062 4.40625 8.3789062 C 4.59825 8.7869063 4.7681094 9.154375 4.9121094 9.484375 C 5.0561094 9.154375 5.22025 8.7869063 5.40625 8.3789062 C 5.59825 7.9649062 5.7922344 7.5469531 5.9902344 7.1269531 C 6.1942344 6.7009531 6.3995156 6.2923438 6.6035156 5.9023438 C 6.8075156 5.5063438 6.9996875 5.159375 7.1796875 4.859375 L 7.6914062 4.859375 C 7.7934063 5.807375 7.8773594 6.7998906 7.9433594 7.8378906 C 8.0153594 8.8758906 8.0788125 9.9617029 8.1328125 11.095703 L 7.5117188 11.095703 C 7.4757188 10.129703 7.4347187 9.2080312 7.3867188 8.3320312 C 7.3447188 7.4500313 7.2850312 6.6347656 7.2070312 5.8847656 C 7.1590312 5.9687656 7.0824688 6.1124063 6.9804688 6.3164062 C 6.8784687 6.5204063 6.7628594 6.7573437 6.6308594 7.0273438 C 6.4988594 7.2973438 6.3607969 7.5883906 6.2167969 7.9003906 C 6.0727969 8.2063906 5.9309688 8.5067812 5.7929688 8.8007812 C 5.6549688 9.0887812 5.5300156 9.3555625 5.4160156 9.6015625 C 5.3080156 9.8475625 5.2240625 10.045312 5.1640625 10.195312 L 4.6132812 10.195312 C 4.5532812 10.045312 4.4675156 9.8475625 4.3535156 9.6015625 C 4.2455156 9.3555625 4.122375 9.0887812 3.984375 8.8007812 C 3.846375 8.5067812 3.7045469 8.2063906 3.5605469 7.9003906 C 3.4165469 7.5883906 3.2784844 7.2973438 3.1464844 7.0273438 C 3.0144844 6.7573437 2.898875 6.5204063 2.796875 6.3164062 C 2.694875 6.1124063 2.6183125 5.9687656 2.5703125 5.8847656 C 2.4923125 6.6347656 2.4308125 7.4500312 2.3828125 8.3320312 C 2.3408125 9.2080312 2.301625 10.129703 2.265625 11.095703 L 1.6621094 11.095703 C 1.7161094 9.9617029 1.7757969 8.8758906 1.8417969 7.8378906 C 1.9137969 6.7998906 2.0015156 5.807375 2.1035156 4.859375 z M 10.115234 4.9667969 L 10.115234 6.4433594 L 11.96875 6.4433594 L 11.96875 6.9375 L 10.115234 6.9375 L 10.115234 9.4121094 C 10.115234 9.6761094 10.135734 9.8925467 10.177734 10.060547 C 10.225734 10.222547 10.292953 10.349453 10.376953 10.439453 C 10.460953 10.529453 10.561641 10.589141 10.681641 10.619141 C 10.801641 10.649141 10.934125 10.664062 11.078125 10.664062 C 11.324125 10.664062 11.521875 10.636031 11.671875 10.582031 C 11.821875 10.522031 11.939438 10.469875 12.023438 10.421875 L 12.167969 10.90625 C 12.083969 10.96025 11.936563 11.023703 11.726562 11.095703 C 11.516563 11.161703 11.288969 11.195313 11.042969 11.195312 C 10.754969 11.195312 10.5105 11.159891 10.3125 11.087891 C 10.1205 11.009891 9.9657031 10.894141 9.8457031 10.744141 C 9.7317031 10.588141 9.6495625 10.397922 9.6015625 10.169922 C 9.5535625 9.9419217 9.53125 9.671375 9.53125 9.359375 L 9.53125 5.0742188 L 10.115234 4.9667969 z M 14.068359 8.8417969 L 14.337891 8.8417969 L 14.337891 12.896484 L 13.957031 12.896484 L 13.957031 9.421875 C 13.914131 9.468675 13.857309 9.5157063 13.787109 9.5664062 C 13.720809 9.6171062 13.646347 9.66805 13.560547 9.71875 C 13.474747 9.76555 13.384616 9.812575 13.291016 9.859375 C 13.197416 9.902275 13.103366 9.9375437 13.009766 9.9648438 L 12.898438 9.671875 C 13.132437 9.5899751 13.342091 9.4880812 13.525391 9.3632812 C 13.708691 9.2345813 13.888959 9.0601969 14.068359 8.8417969 z "
     id="path4" />
</svg>

<svg xmlns="http://www.w3.org/2000/svg" viewBox="0 0 16 16">
 <path d="m 1.6 0 c -0.886 0 -1.6 0.713 -1.6 1.6 l 0 12.801 c 0 0.886 0.713 1.6 1.6 1.6 l 12.801 0 c 0.886 0 1.6 -0.713 1.6 -1.6 l 0 -12.801 c 0 -0.886 -0.713 -1.6 -1.6 -1.6 l -12.801 0 z m 0.504 4.859 l 0.539 0 c 0.18 0.3 0.372 0.647 0.576 1.043 c 0.204 0.39 0.406 0.799 0.604 1.225 c 0.204 0.42 0.398 0.838 0.584 1.252 c 0.192 0.408 0.362 0.775 0.506 1.105 c 0.144 -0.33 0.308 -0.697 0.494 -1.105 c 0.192 -0.414 0.386 -0.832 0.584 -1.252 c 0.204 -0.426 0.409 -0.835 0.613 -1.225 c 0.204 -0.396 0.396 -0.743 0.576 -1.043 l 0.512 0 c 0.102 0.948 0.186 1.941 0.252 2.979 c 0.072 1.038 0.135 2.124 0.189 3.258 l -0.621 0 c -0.036 -0.966 -0.077 -1.888 -0.125 -2.764 c -0.042 -0.882 -0.102 -1.697 -0.18 -2.447 c -0.048 0.084 -0.125 0.228 -0.227 0.432 c -0.102 0.204 -0.218 0.441 -0.35 0.711 c -0.132 0.27 -0.27 0.561 -0.414 0.873 c -0.144 0.306 -0.286 0.606 -0.424 0.9 c -0.138 0.288 -0.263 0.555 -0.377 0.801 c -0.108 0.246 -0.192 0.444 -0.252 0.594 l -0.551 0 c -0.06 -0.15 -0.146 -0.348 -0.26 -0.594 c -0.108 -0.246 -0.231 -0.513 -0.369 -0.801 c -0.138 -0.294 -0.28 -0.594 -0.424 -0.9 c -0.144 -0.312 -0.282 -0.603 -0.414 -0.873 c -0.132 -0.27 -0.248 -0.507 -0.35 -0.711 c -0.102 -0.204 -0.179 -0.348 -0.227 -0.432 c -0.078 0.75 -0.139 1.565 -0.188 2.447 c -0.042 0.876 -0.081 1.798 -0.117 2.764 l -0.604 0 c 0.054 -1.134 0.114 -2.22 0.18 -3.258 c 0.072 -1.038 0.16 -2.031 0.262 -2.979 z m 8.01 0.107 l 0 1.477 l 1.854 0 l 0 0.494 l -1.854 0 l 0 2.475 c 0 0.264 0.021 0.48 0.063 0.648 c 0.048 0.162 0.115 0.289 0.199 0.379 c 0.084 0.09 0.185 0.15 0.305 0.18 c 0.12 0.03 0.252 0.045 0.396 0.045 c 0.246 0 0.444 -0.028 0.594 -0.082 c 0.15 -0.06 0.268 -0.112 0.352 -0.16 l 0.145 0.484 c -0.084 0.054 -0.231 0.117 -0.441 0.189 c -0.21 0.066 -0.438 0.1 -0.684 0.1 c -0.288 0 -0.532 -0.035 -0.73 -0.107 c -0.192 -0.078 -0.347 -0.194 -0.467 -0.344 c -0.114 -0.156 -0.196 -0.346 -0.244 -0.574 c -0.048 -0.228 -0.07 -0.499 -0.07 -0.811 l 0 -4.285 l 0.584 -0.107 z m 3.953 3.875 l 0.27 0 l 0 4.055 l -0.381 0 l 0 -3.475 c -0.043 0.047 -0.1 0.094 -0.17 0.145 c -0.066 0.051 -0.141 0.102 -0.227 0.152 c -0.086 0.047 -0.176 0.094 -0.27 0.141 c -0.094 0.043 -0.188 0.078 -0.281 0.105 l -0.111 -0.293 c 0.234 -0.082 0.444 -0.184 0.627 -0.309 c 0.183 -0.129 0.364 -0.303 0.543 -0.521 z" style="fill:#353535;fill-opacity:1"/>
</svg>
